svgs/duotone/windsock.svg

<svg xmlns="http://www.w3.org/2000/svg" viewBox="0 0 512 512"><!--! Font Awesome Pro 6.6.0 by @fontawesome - https://fontawesome.com License - https://fontawesome.com/license (Commercial License) Copyright 2024 Fonticons, Inc. --><defs><style>.fa-secondary{opacity:.4}</style></defs><path class="fa-secondary" d="M64 96l0 48 64 0 0 128-64 0 0 48 64 0 0 8.6c0 18 14.7 32 31.9 32c2.2 0 4.4-.2 6.6-.7l41.5-8.6 0-286.7c-13.8-2.9-27.7-5.8-41.5-8.6c-19.9-4.1-38.5 11-38.5 31.3l0 8.6L64 96zM272 78l0 260c32-6.7 64-13.3 96-20l0-220c-32-6.7-64-13.3-96-20zm160 33.3l0 193.3c18.2-3.8 36.4-7.6 54.5-11.4c14.8-3.1 25.5-16.2 25.5-31.3l0-108c0-15.2-10.6-28.2-25.5-31.3c-18.2-3.8-36.4-7.6-54.5-11.4z"/><path class="fa-primary" d="M64 32C64 14.3 49.7 0 32 0S0 14.3 0 32L0 480c0 17.7 14.3 32 32 32s32-14.3 32-32L64 32zM208 64.7l0 286.7L272 338l0-260L208 64.7zM368 318l64-13.3 0-193.3L368 98l0 220z"/></svg>

<svg xmlns="http://www.w3.org/2000/svg" viewBox="0 0 512 512"><!--! Font Awesome Pro 6.4.0 by @fontawesome - https://fontawesome.com License - https://fontawesome.com/license (Commercial License) Copyright 2023 Fonticons, Inc. --><defs><style>.fa-secondary{opacity:.4}</style></defs><path class="fa-primary" d="M64 32C64 14.3 49.7 0 32 0S0 14.3 0 32V480c0 17.7 14.3 32 32 32s32-14.3 32-32V32zM208 64.7V351.3L272 338V78L208 64.7zM368 318l64-13.3V111.3L368 98V318z"/><path class="fa-secondary" d="M272 78V338l96-20V98L272 78zM486.5 293.3c14.8-3.1 25.5-16.2 25.5-31.3V154c0-15.2-10.6-28.2-25.5-31.3L432 111.3V304.7l54.5-11.4zM208 64.7L166.5 56c-19.9-4.1-38.5 11-38.5 31.3V96H64v48h64V272H64v48h64v8.6c0 20.3 18.7 35.5 38.5 31.3l41.5-8.6V64.7z"/></svg>
